X: 1
T: Around The World For Sport
T:Sword in Hand
M: 4/4
L: 1/8
K: Dmaj
[|:"G"G2  BG"D" FGAF|"Em"EBBA BGEF|"G"G2 BG "D"FGAB|"G"d2 AGFD"D" D2:|]
[|:"D"f2  ec  dBAF|"Em"EBBA BG E2|"D"f2 ec dBAF|"G"G2 AGF"D"D D2:|]




